X:1
T:Title
%%score { ( 1 3 ) | ( 2 4 ) }
L:1/8
M:4/4
K:F
V:1 treble nm="Grand Piano"
V:3 treble 
V:2 bass 
V:4 bass 
V:1
 z4 z2[Q:1/4=100] A2 | c3 d cA A>G | F6 z2 | B3 B Bdc=B | [CEc]6 [CFA]2 | %5
 [CAc]3 [A,F] [CGB]2 [CFA]2 | [CEG]6 A2 | c3 d cA A>G |[M:3/4] F6 |[M:1/4] F2 |[M:4/4] B3 B Bdc=B | %11
 [Ec]6 A2 | c2 A2 [EG]3 F |[M:3/4] F6 |[M:1/4] c2 |[M:4/4] A6 z2 | G6 z2 | =B6 z2 | c6 z2 | %19
 [Af]3 [_Ae] [=Af][CFc][DFf][Fd] | [DFB]6 [Fd]2 | [Fc]2 [FA]2 [EG]3 F |[M:3/4] F6 |] %23
V:2
 z4 z2 [F,CF]2 | [F,A,F]3 [F,B,F] [F,A,F][F,CF] [F,CF]>[F,B,F] | [A,C]2 B,2 A,2 [F,A,]2 | %3
 [G,CE]3 [G,CE] [G,CE][G,=B,F][G,CE][G,DF] | C,6 F,2 | F,3 F, E,2 F,2 | C,6 [F,CF]2 | %7
 [F,A,F]3 [F,B,F] [F,A,F][F,CF] [F,CF]>[F,B,F] |[M:3/4] [A,C]2 B,2 A,2 |[M:1/4] [F,A,]2 | %10
[M:4/4][K:treble] [G,CE]3 [G,CE] [G,CE][G,=B,F][G,CE][G,DF] | [C,C]6 [F,CF]2 | %12
 [F,A,F]2 [F,CF]2 [C,B,]3 [F,A,] |[M:3/4] [F,A,C]6 |[M:1/4] [F,A,F]2 | %15
[M:4/4] [F,CF][F,C][F,C][F,C] z A [F,C]2 | [C,B,][C,B,][C,B,][C,B,] [C,B,]2 [E,C]2 | %17
 [G,DF][G,D][G,D][G,D] z AGF | C,[C,A,][C,B,][C,A,] [C,G,]2 [F,C]2 | %19
 [F,C]3 [F,C] [F,C]A,,B,,[B,,B,] | B,,6 [B,,B,]2 | [C,A,]2 [C,C]2 [C,B,]3 [F,A,] | %22
[M:3/4] [F,A,C]6 |] %23
V:3
 x8 | x8 | z2 D2 C2 F2 | x8 | x8 | x8 | x8 | x8 |[M:3/4] z2 D2 C2 |[M:1/4] x2 |[M:4/4] x8 | x8 | %12
 x8 |[M:3/4] x6 |[M:1/4] x2 |[M:4/4] z FFF Gc[GB][FA] | EEEE E2 [Gc]2 | z FFF Ffed | %18
 [CE]FGA B2 [Ac]2 | x8 | x8 | x8 |[M:3/4] x6 |] %23
V:4
 x8 | x8 | F,6 z2 | x8 | x8 | x8 | x8 | x8 |[M:3/4] F,6 |[M:1/4] x2 |[M:4/4][K:treble] x8 | x8 | %12
 x8 |[M:3/4] x6 |[M:1/4] x2 |[M:4/4] z4 [F,C]2 z2 | x8 | z4 [G,D]2 [G,=B,]2 | x8 | x8 | x8 | x8 | %22
[M:3/4] x6 |] %23

